X: 43319
T: Woodstove, The
R: hornpipe
M: 4/4
K: Dmajor
~F3E DFAd|B=cBA GBdg|f/g/age fdec|dAFA GECE|
~F3E DFAd|B=cBA GBdB|Aaaf gecd|1 e/f/edc dAFE:|2 e/f/edc d2z2||
e3f gecA|dcdf afda|b~g3 afed|B/c/def gecA|
dAFE ~D3F|GFGA B/c/dec|Aaaf gecd|1 e/f/edc d2z2:|2 e/f/edc dAFE||

